;FLAVOR:Marlin
;TIME:31431
;Filament used: 15.9475m
;Layer height: 0.235044
;MINX:19.269
;MINY:0.2
;MINZ:0.353
;MAXX:190.731
;MAXY:28.085
;MAXZ:103.283
;Setting summary:
;  CATEGORY: Machine
;    Start G-code: [not shown for brevity]
;    Material GUID: 506c9f0d-e3aa-4bd4-b2d2-23e2425b1aa9
;    Diameter: 2.85
;  CATEGORY: Quality
;    Layer Height: 0.2
;  CATEGORY: Walls
;  CATEGORY: Top/Bottom
;  CATEGORY: Infill
;  CATEGORY: Material
;    Default Printing Temperature: 200
;    Build Volume Temperature: 28
;    Default Build Plate Temperature: 60
;    Adhesion Tendency: 0
;    Surface Energy: 100
;    Anti-ooze Retracted Position: -4
;    Anti-ooze Retraction Speed: 50
;    Break Preparation Retracted Position: -16
;    Break Preparation Retraction Speed: 50
;    Break Preparation Temperature: 210
;    Break Retracted Position: -50
;    Break Retraction Speed: 25
;    Break Temperature: 60
;    Flush Purge Length: 60
;    Maximum Park Duration: 7200
;    No Load Move Factor: 0.91
;    Standby Temperature: 175
;  CATEGORY: Speed
;  CATEGORY: Travel
;  CATEGORY: Cooling
;  CATEGORY: Support
;  CATEGORY: Build Plate Adhesion
;  CATEGORY: Dual Extrusion
;  CATEGORY: Mesh Fixes
;  CATEGORY: Special Modes
;  CATEGORY: Experimental
;  CATEGORY: Command Line Settings
;BELTPROCESSED
;Generated with Cura_SteamEngine 4.11.0
M140 S50
M105
M190 S50
M104 S200
M105
M109 S200
M82 ;absolute extrusion mode
G28 
G92 Z0 
G92 E0 
G90               ; Set to Absolute Positioning 
G1 X50 Y0 F2000 
G1 X150 E10 F800 
G1 Z1 F800 
G1 X50 E20 F800 
G1 Z10 F800 
M82               ; Set extruder to absolute mode 
G21               ; Metric values 
G92 Z0 E0   ; Set all axis to 0 
;˅˅˅˅˅˅˅˅˅˅˅˅˅˅˅˅ - copy from here / paste codes just under here - ˅˅˅˅˅˅˅˅˅˅˅˅˅˅˅˅ 
M107              ; Start with the fan off
G92 E0
G92 E0
G1 F1500 E-6.5
;LAYER_COUNT:440
;LAYER:0
M107
;MESH:20mmTestCube.stl
G0 F3600 X190.731 Y0.464 Z0.353
;TYPE:WALL-OUTER
G1 F1500 E0
G1 X19.269 Y0.464 E3.22926
G1 X19.269 Y0.2 E3.23423
G1 F600 ; Belt wall speed
G1 X190.731 Y0.2 E5.578682 ; Adjusted E for belt wall
G92 E5.365550 ; Reset E to pre-compensated value
G1 F1500 ; Restored speed
G1 X190.731 Y0.464 E5.37052
G0 F3600 X190.531 Y0.464
;MESH:NONMESH
G0 F600 X190.531 Y0.464 Z0.588
G0 F3600 X190.731 Y0.797
;TIME_ELAPSED:18.925821
;LAYER:1
M106 S255
;TYPE:WALL-OUTER
;MESH:20mmTestCube.stl
G1 F1500 X19.269 Y0.797 E7.52031
G1 X19.269 Y0.2 E7.5278
G1 F600 ; Belt wall speed
G1 X190.731 Y0.2 E9.892569 ; Adjusted E for belt wall
G92 E9.677590 ; Reset E to pre-compensated value
G1 F1500 ; Restored speed
G1 X190.731 Y0.797 E9.68507
G0 F5400 X190.531 Y0.797
G0 X190.42 Y0.498
;TYPE:SKIN
G1 F1500 X190.137 Y0.498 E9.6869
G1 X19.583 Y0.498 E10.78961
G0 F5400 X19.48 Y0.6
;MESH:NONMESH
G0 F600 X19.48 Y0.6 Z0.823
G0 F5400 X190.331 Y0.697
G0 X190.331 Y0.729
;TIME_ELAPSED:41.550491
;LAYER:2
;TYPE:WALL-INNER
;MESH:20mmTestCube.stl
G1 F3000 X19.669 Y0.729 E12.92937
G1 X19.669 Y0.6 E12.93099
G1 X190.331 Y0.6 E13.62106
G1 X190.331 Y0.729 E13.62268
G0 F7200 X190.731 Y1.129
;TYPE:WALL-OUTER
G1 F1500 X19.269 Y1.129 E15.77247
G1 X19.269 Y0.2 E15.78412
G1 F600 ; Belt wall speed
G1 X190.731 Y0.2 E18.148889 ; Adjusted E for belt wall
G92 E17.933910 ; Reset E to pre-compensated value
G1 F1500 ; Restored speed
G1 X190.731 Y1.129 E17.94556
G0 F7200 X190.531 Y1.129
;MESH:NONMESH
G0 F600 X190.531 Y1.129 Z1.058
G0 F7200 X190.331 Y1.061
;TIME_ELAPSED:62.308349
;LAYER:3
;TYPE:WALL-INNER
;MESH:20mmTestCube.stl
G1 F3000 X19.669 Y1.061 E20.08532
G1 X19.669 Y0.6 E20.0911
G1 X190.331 Y0.6 E22.23086
G1 X190.331 Y1.061 E22.23664
G0 F7200 X190.731 Y1.461
;TYPE:WALL-OUTER
G1 F1500 X19.269 Y1.461 E24.38643
G1 X19.269 Y0.2 E24.40224
G1 F600 ; Belt wall speed
G1 X190.731 Y0.2 E26.767009 ; Adjusted E for belt wall
G92 E26.552030 ; Reset E to pre-compensated value
G1 F1500 ; Restored speed
G1 X190.731 Y1.461 E26.56784
G0 F7200 X190.531 Y1.461
G0 X190.088 Y0.83
;TYPE:SKIN
G1 F1500 X189.805 Y0.83 E26.56848
G1 X20.099 Y0.83 E26.94881
G0 F7200 X20.064 Y1
;MESH:NONMESH
G0 F600 X20.064 Y1 Z1.293
G0 F7200 X20.064 Y0.961
G0 X190.261 Y0.991
G0 X190.331 Y1.394
;TIME_ELAPSED:91.389125
;LAYER:4
;TYPE:WALL-INNER
;MESH:20mmTestCube.stl
G1 F3000 X19.669 Y1.394 E29.08857
G1 X19.669 Y0.6 E29.09853
G1 X190.331 Y0.6 E31.23829
G1 X190.331 Y1.394 E31.24825
G0 F7200 X190.731 Y1.794
;TYPE:WALL-OUTER
G1 F1500 X19.269 Y1.794 E33.39804
G1 X19.269 Y0.2 E33.41802
G1 F600 ; Belt wall speed
G1 X190.731 Y0.2 E35.782800 ; Adjusted E for belt wall
G92 E35.567820 ; Reset E to pre-compensated value
G1 F1500 ; Restored speed
G1 X190.731 Y1.794 E35.5878
G0 F7200 X190.531 Y1.794
G0 X189.934 Y0.995
;TYPE:SKIN
G1 F1500 X189.652 Y0.996 E35.59137
G1 X20.229 Y0.996 E37.73399
G1 X20.006 Y1.055 E37.73691
G0 F7200 X20.149 Y1.198
G0 X190.017 Y0.795
G1 F1500 X190.135 Y0.913 E37.73796
G0 F7200 X189.931 Y1
;MESH:NONMESH
G0 F600 X189.931 Y1 Z1.528
G0 F7200 X189.931 Y1.326
;TIME_ELAPSED:120.522971
;LAYER:5
;TYPE:WALL-INNER
;MESH:20mmTestCube.stl
G1 F3000 X20.069 Y1.326 E39.86769
G1 X20.069 Y1 E39.87178
G1 X189.931 Y1 E41.60751
G1 X189.931 Y1.326 E41.61159
G0 F7200 X190.331 Y1.726
G1 F3000 X19.669 Y1.726 E43.75136
G1 X19.669 Y0.6 E43.76547
G1 X190.331 Y0.6 E45.90524
G1 X190.331 Y1.726 E45.91935
G0 F7200 X190.731 Y2.126
;TYPE:WALL-OUTER
G1 F1500 X19.269 Y2.126 E48.06915
G1 X19.269 Y0.2 E48.09329
G1 F600 ; Belt wall speed
G1 X190.731 Y0.2 E50.458070 ; Adjusted E for belt wall
G92 E50.243090 ; Reset E to pre-compensated value
G1 F1500 ; Restored speed
G1 X190.731 Y2.126 E50.26723
G0 F7200 X190.531 Y2.126
G0 X189.931 Y1.444
;MESH:NONMESH
G0 F600 X189.931 Y1.444 Z1.763
G0 F7200 X21.476 Y1.499
;TIME_ELAPSED:149.695100
;LAYER:6
;TYPE:FILL
;MESH:20mmTestCube.stl
G1 F3000 X21.815 Y1.159 E50.27325
G0 F7200 X24.135 Y1.16
G1 F3000 X24.474 Y1.499 E50.27926
G0 F7200 X27.133 Y1.499
G1 F3000 X27.472 Y1.159 E50.28528
G0 F7200 X29.792 Y1.16
G1 F3000 X30.131 Y1.499 E50.2913
G0 F7200 X32.789 Y1.499
G1 F3000 X33.129 Y1.159 E50.29732
G0 F7200 X35.449 Y1.16
G1 F3000 X35.788 Y1.499 E50.30334
G0 F7200 X38.446 Y1.499
G1 F3000 X38.786 Y1.159 E50.30936
G0 F7200 X41.106 Y1.16
G1 F3000 X41.444 Y1.499 E50.31537
G0 F7200 X44.103 Y1.499
G1 F3000 X44.443 Y1.159 E50.32139
G0 F7200 X46.763 Y1.16
G1 F3000 X47.101 Y1.499 E50.3274
G0 F7200 X49.76 Y1.499
G1 F3000 X50.099 Y1.159 E50.33342
G0 F7200 X52.419 Y1.16
G1 F3000 X52.758 Y1.499 E50.33943
G0 F7200 X55.417 Y1.499
G1 F3000 X55.756 Y1.159 E50.34545
G0 F7200 X58.076 Y1.16
G1 F3000 X58.415 Y1.499 E50.35146
G0 F7200 X61.074 Y1.499
G1 F3000 X61.413 Y1.159 E50.35748
G0 F7200 X63.733 Y1.16
G1 F3000 X64.072 Y1.499 E50.36349
G0 F7200 X66.731 Y1.499
G1 F3000 X67.07 Y1.159 E50.36951
G0 F7200 X69.39 Y1.16
G1 F3000 X69.729 Y1.499 E50.37552
G0 F7200 X72.387 Y1.499
G1 F3000 X72.727 Y1.159 E50.38155
G0 F7200 X75.047 Y1.16
G1 F3000 X75.386 Y1.499 E50.38756
G0 F7200 X78.044 Y1.499
G1 F3000 X78.384 Y1.159 E50.39359
G0 F7200 X80.704 Y1.16
G1 F3000 X81.042 Y1.499 E50.39959
G0 F7200 X83.701 Y1.499
G1 F3000 X84.041 Y1.159 E50.40562
G0 F7200 X86.361 Y1.16
G1 F3000 X86.699 Y1.499 E50.41162
G0 F7200 X89.358 Y1.499
G1 F3000 X89.697 Y1.159 E50.41764
G0 F7200 X92.017 Y1.16
G1 F3000 X92.356 Y1.499 E50.42365
G0 F7200 X95.015 Y1.499
G1 F3000 X95.354 Y1.159 E50.42967
G0 F7200 X97.674 Y1.16
G1 F3000 X98.013 Y1.499 E50.43568
G0 F7200 X100.672 Y1.499
G1 F3000 X101.011 Y1.159 E50.4417
G0 F7200 X103.331 Y1.16
G1 F3000 X103.67 Y1.499 E50.44771
G0 F7200 X106.329 Y1.499
G1 F3000 X106.668 Y1.159 E50.45373
G0 F7200 X108.988 Y1.16
G1 F3000 X109.327 Y1.499 E50.45974
G0 F7200 X111.985 Y1.499
G1 F3000 X112.325 Y1.159 E50.46577
G0 F7200 X114.645 Y1.16
G1 F3000 X114.984 Y1.499 E50.47178
G0 F7200 X117.642 Y1.499
G1 F3000 X117.982 Y1.159 E50.47781
G0 F7200 X120.302 Y1.16
G1 F3000 X120.64 Y1.499 E50.48381
G0 F7200 X123.299 Y1.499
G1 F3000 X123.639 Y1.159 E50.48984
G0 F7200 X125.959 Y1.16
G1 F3000 X126.297 Y1.499 E50.49585
G0 F7200 X128.956 Y1.499
G1 F3000 X129.295 Y1.159 E50.50187
G0 F7200 X131.615 Y1.16
G1 F3000 X131.954 Y1.499 E50.50788
G0 F7200 X134.613 Y1.499
G1 F3000 X134.952 Y1.159 E50.5139
G0 F7200 X137.272 Y1.16
G1 F3000 X137.611 Y1.499 E50.51991
G0 F7200 X140.27 Y1.499
G1 F3000 X140.609 Y1.159 E50.52593
G0 F7200 X142.929 Y1.16
G1 F3000 X143.268 Y1.499 E50.53194
G0 F7200 X145.927 Y1.499
G1 F3000 X146.266 Y1.159 E50.53796
G0 F7200 X148.586 Y1.16
G1 F3000 X148.925 Y1.499 E50.54397
G0 F7200 X151.583 Y1.499
G1 F3000 X151.923 Y1.159 E50.55
G0 F7200 X154.243 Y1.16
G1 F3000 X154.582 Y1.499 E50.55601
G0 F7200 X157.24 Y1.499
G1 F3000 X157.58 Y1.159 E50.56204
G0 F7200 X159.9 Y1.16
G1 F3000 X160.238 Y1.499 E50.56804
G0 F7200 X162.897 Y1.499
G1 F3000 X163.237 Y1.159 E50.57407
G0 F7200 X165.557 Y1.16
G1 F3000 X165.895 Y1.499 E50.58007
G0 F7200 X168.554 Y1.499
G1 F3000 X168.893 Y1.159 E50.58609
G0 F7200 X171.213 Y1.16
G1 F3000 X171.552 Y1.499 E50.5921
G0 F7200 X174.211 Y1.499
G1 F3000 X174.55 Y1.159 E50.59812
G0 F7200 X176.87 Y1.16
G1 F3000 X177.209 Y1.499 E50.60413
G0 F7200 X179.868 Y1.499
G1 F3000 X180.207 Y1.159 E50.61015
G0 F7200 X182.527 Y1.16
G1 F3000 X182.866 Y1.499 E50.61616
G0 F7200 X185.525 Y1.499
G1 F3000 X185.864 Y1.159 E50.62218
G0 F7200 X188.184 Y1.16
G1 F3000 X188.523 Y1.499 E50.62819
G0 F7200 X189.931 Y1.659
;TYPE:WALL-INNER
G1 F3000 X20.069 Y1.659 E52.75792
G1 X20.069 Y1 E52.76619
G1 X189.931 Y1 E54.89592
G1 X189.931 Y1.659 E54.90418
G0 F7200 X190.331 Y2.059
G1 F3000 X19.669 Y2.059 E57.04394
G1 X19.669 Y0.6 E57.06224
G1 X190.331 Y0.6 E59.202
G1 X190.331 Y2.059 E59.22029
G0 F7200 X190.731 Y2.459
;TYPE:WALL-OUTER
G1 F1500 X19.269 Y2.459 E61.37008
G1 X19.269 Y0.2 E61.39841
G1 F600 ; Belt wall speed
G1 X190.731 Y0.2 E63.763179 ; Adjusted E for belt wall
G92 E63.548200 ; Reset E to pre-compensated value
G1 F1500 ; Restored speed
G1 X190.731 Y2.459 E63.57652
G0 F7200 X190.531 Y2.459
G0 X190.261 Y1.989
G0 X189.735 Y1.361
G0 X189.651 Y1.278
;TYPE:SKIN
G1 F1500 X189.419 Y1.329 E63.57852
G1 X20.562 Y1.329 E64.99866
G1 X20.338 Y1.387 E65.00061
G0 F7200 X20.414 Y1.463
;MESH:NONMESH
G0 F600 X20.414 Y1.463 Z1.998
G0 F7200 X21.143 Y1.831
;TIME_ELAPSED:187.680991
;LAYER:7
;TYPE:FILL
;MESH:20mmTestCube.stl
G1 F3000 X21.815 Y1.159 E65.01252
G1 X21.885 Y1.089
G0 F7200 X24.135 Y1.16
G1 F3000 X24.806 Y1.83 E65.02441
G1 X24.876 Y1.9
G0 F7200 X26.8 Y1.831
G1 F3000 X27.472 Y1.159 E65.03633
G1 X27.542 Y1.089
G0 F7200 X29.792 Y1.16
G1 F3000 X30.462 Y1.83 E65.04821
G1 X30.532 Y1.9
G0 F7200 X32.457 Y1.831
G1 F3000 X33.129 Y1.159 E65.06012
G1 X33.199 Y1.089
G0 F7200 X35.449 Y1.16
G1 F3000 X36.119 Y1.83 E65.072
G1 X36.189 Y1.9
G0 F7200 X38.114 Y1.831
G1 F3000 X38.786 Y1.159 E65.08392
G1 X38.856 Y1.089
G0 F7200 X41.106 Y1.16
G1 F3000 X41.776 Y1.83 E65.0958
G1 X41.846 Y1.9
G0 F7200 X43.771 Y1.831
G1 F3000 X44.443 Y1.159 E65.10771
G1 X44.513 Y1.089
G0 F7200 X46.763 Y1.16
G1 F3000 X47.433 Y1.83 E65.11959
G1 X47.503 Y1.9
G0 F7200 X49.428 Y1.831
G1 F3000 X50.099 Y1.159 E65.1315
G1 X50.169 Y1.089
G0 F7200 X52.419 Y1.16
G1 F3000 X53.09 Y1.83 E65.14339
G1 X53.16 Y1.9
G0 F7200 X55.085 Y1.831
G1 F3000 X55.756 Y1.159 E65.15529
G1 X55.826 Y1.089
G0 F7200 X58.076 Y1.16
G1 F3000 X58.747 Y1.83 E65.16718
G1 X58.817 Y1.9
G0 F7200 X60.741 Y1.831
G1 F3000 X61.413 Y1.159 E65.1791
G1 X61.483 Y1.089
G0 F7200 X63.733 Y1.16
G1 F3000 X64.403 Y1.83 E65.19098
G1 X64.473 Y1.9
G0 F7200 X66.398 Y1.831
G1 F3000 X67.07 Y1.159 E65.20289
G1 X67.14 Y1.089
G0 F7200 X69.39 Y1.16
G1 F3000 X70.06 Y1.83 E65.21477
G1 X70.13 Y1.9
G0 F7200 X72.055 Y1.831
G1 F3000 X72.727 Y1.159 E65.22669
G1 X72.797 Y1.089
G0 F7200 X75.047 Y1.16
G1 F3000 X75.717 Y1.83 E65.23857
G1 X75.787 Y1.9
G0 F7200 X77.712 Y1.831
G1 F3000 X78.384 Y1.159 E65.25049
G1 X78.454 Y1.089
G0 F7200 X80.704 Y1.16
G1 F3000 X81.374 Y1.83 E65.26237
G1 X81.444 Y1.9
G0 F7200 X83.369 Y1.831
G1 F3000 X84.041 Y1.159 E65.27428
G1 X84.111 Y1.089
G0 F7200 X86.361 Y1.16
G1 F3000 X87.031 Y1.83 E65.28616
G1 X87.101 Y1.9
G0 F7200 X89.026 Y1.831
G1 F3000 X89.697 Y1.159 E65.29807
G1 X89.767 Y1.089
G0 F7200 X92.017 Y1.16
G1 F3000 X92.688 Y1.83 E65.30996
G1 X92.758 Y1.9
G0 F7200 X94.683 Y1.831
G1 F3000 X95.354 Y1.159 E65.32186
G1 X95.424 Y1.089
G0 F7200 X97.674 Y1.16
G1 F3000 X98.345 Y1.83 E65.33375
G1 X98.415 Y1.9
G0 F7200 X100.339 Y1.831
G1 F3000 X101.011 Y1.159 E65.34567
G1 X101.081 Y1.089
G0 F7200 X103.331 Y1.16
G1 F3000 X104.001 Y1.83 E65.35755
G1 X104.071 Y1.9
G0 F7200 X105.996 Y1.831
G1 F3000 X106.668 Y1.159 E65.36946
G1 X106.738 Y1.089
G0 F7200 X108.988 Y1.16
G1 F3000 X109.658 Y1.83 E65.38134
G1 X109.728 Y1.9
G0 F7200 X111.653 Y1.831
G1 F3000 X112.325 Y1.159 E65.39326
G1 X112.395 Y1.089
G0 F7200 X114.645 Y1.16
G1 F3000 X115.315 Y1.83 E65.40514
G1 X115.385 Y1.9
G0 F7200 X117.31 Y1.831
G1 F3000 X117.982 Y1.159 E65.41706
G1 X118.052 Y1.089
G0 F7200 X120.302 Y1.16
G1 F3000 X120.972 Y1.83 E65.42894
G1 X121.042 Y1.9
G0 F7200 X122.967 Y1.831
G1 F3000 X123.639 Y1.159 E65.44085
G1 X123.709 Y1.089
G0 F7200 X125.959 Y1.16
G1 F3000 X126.629 Y1.83 E65.45273
G1 X126.699 Y1.9
G0 F7200 X128.624 Y1.831
G1 F3000 X129.295 Y1.159 E65.46464
G1 X129.365 Y1.089
G0 F7200 X131.615 Y1.16
G1 F3000 X132.286 Y1.83 E65.47653
G1 X132.356 Y1.9
G0 F7200 X134.28 Y1.831
G1 F3000 X134.952 Y1.159 E65.48844
G1 X135.022 Y1.089
G0 F7200 X137.272 Y1.16
G1 F3000 X137.943 Y1.83 E65.50033
G1 X138.013 Y1.9
G0 F7200 X139.937 Y1.831
G1 F3000 X140.609 Y1.159 E65.51225
G1 X140.679 Y1.089
G0 F7200 X142.929 Y1.16
G1 F3000 X143.599 Y1.83 E65.52413
G1 X143.669 Y1.9
G0 F7200 X145.594 Y1.831
G1 F3000 X146.266 Y1.159 E65.53604
G1 X146.336 Y1.089
G0 F7200 X148.586 Y1.16
G1 F3000 X149.256 Y1.83 E65.54792
G1 X149.326 Y1.9
G0 F7200 X151.251 Y1.831
G1 F3000 X151.923 Y1.159 E65.55984
G1 X151.993 Y1.089
G0 F7200 X154.243 Y1.16
G1 F3000 X154.913 Y1.83 E65.57172
G1 X154.983 Y1.9
G0 F7200 X156.908 Y1.831
G1 F3000 X157.58 Y1.159 E65.58363
G1 X157.65 Y1.089
G0 F7200 X159.9 Y1.16
G1 F3000 X160.57 Y1.83 E65.59551
G1 X160.64 Y1.9
G0 F7200 X162.565 Y1.831
G1 F3000 X163.237 Y1.159 E65.60743
G1 X163.307 Y1.089
G0 F7200 X165.557 Y1.16
G1 F3000 X166.227 Y1.83 E65.61931
G1 X166.297 Y1.9
G0 F7200 X168.222 Y1.831
G1 F3000 X168.893 Y1.159 E65.63122
G1 X168.963 Y1.089
G0 F7200 X171.213 Y1.16
G1 F3000 X171.884 Y1.83 E65.6431
G1 X171.954 Y1.9
G0 F7200 X173.878 Y1.831
G1 F3000 X174.55 Y1.159 E65.65502
G1 X174.62 Y1.089
G0 F7200 X176.87 Y1.16
G1 F3000 X177.541 Y1.83 E65.66691
G1 X177.611 Y1.9
G0 F7200 X179.535 Y1.831
G1 F3000 X180.207 Y1.159 E65.67882
G1 X180.277 Y1.089
G0 F7200 X182.527 Y1.16
G1 F3000 X183.197 Y1.83 E65.6907
G1 X183.267 Y1.9
G0 F7200 X185.192 Y1.831
G1 F3000 X185.864 Y1.159 E65.70262
G1 X185.934 Y1.089
G0 F7200 X188.184 Y1.16
G1 F3000 X188.854 Y1.83 E65.7145
G1 X188.924 Y1.9
G0 F7200 X189.931 Y1.991
;TYPE:WALL-INNER
G1 F3000 X20.069 Y1.991 E67.84423
G1 X20.069 Y1 E67.85666
G1 X189.931 Y1 E69.98639
G1 X189.931 Y1.991 E69.99881
G0 F7200 X190.331 Y2.391
G1 F3000 X19.669 Y2.391 E72.13857
G1 X19.669 Y0.6 E72.16103
G1 X190.331 Y0.6 E74.30079
G1 X190.331 Y2.391 E74.32325
G0 F7200 X190.731 Y2.791
;TYPE:WALL-OUTER
G1 F1500 X19.269 Y2.791 E76.47304
G1 X19.269 Y0.2 E76.50553
G1 F600 ; Belt wall speed
G1 X190.731 Y0.2 E78.870299 ; Adjusted E for belt wall
G92 E78.655320 ; Reset E to pre-compensated value
G1 F1500 ; Restored speed
G1 X190.731 Y2.791 E78.6878
G0 F7200 X190.531 Y2.791
G0 X189.931 Y2.109
;MESH:NONMESH
G0 F600 X189.931 Y2.109 Z2.233
G0 F7200 X20.812 Y2.163
;TIME_ELAPSED:220.780765
;LAYER:8
;TYPE:FILL
;MESH:20mmTestCube.stl
G1 F3000 X21.815 Y1.159 E78.7056
G1 X21.885 Y1.089
G0 F7200 X24.135 Y1.16
G1 F3000 X25.138 Y2.163 E78.72338
G1 X25.208 Y2.233
G0 F7200 X26.469 Y2.163
G1 F3000 X27.472 Y1.159 E78.74117
G1 X27.542 Y1.089
G0 F7200 X29.792 Y1.16
G1 F3000 X30.795 Y2.163 E78.75896
G1 X30.865 Y2.233
G0 F7200 X32.125 Y2.163
G1 F3000 X33.129 Y1.159 E78.77676
G1 X33.199 Y1.089
G0 F7200 X35.449 Y1.16
G1 F3000 X36.452 Y2.163 E78.79455
G1 X36.522 Y2.233
G0 F7200 X37.782 Y2.163
G1 F3000 X38.786 Y1.159 E78.81235
G1 X38.856 Y1.089
G0 F7200 X41.106 Y1.16
G1 F3000 X42.108 Y2.163 E78.83012
G1 X42.178 Y2.233
G0 F7200 X43.439 Y2.163
G1 F3000 X44.443 Y1.159 E78.84793
G1 X44.513 Y1.089
